src/img/animal-toucan.svg

<svg xmlns="http://www.w3.org/2000/svg" width="335" height="362" fill="none" viewBox="0 0 335 362"><circle cx="166.916" cy="160.916" r="85.915" fill="#ED93ED"/><path fill="#71A6AB" d="M184.147 233.148c-.026-.352-.262-.689-.72-.693-1.625-.007-3.073.993-4.288 1.979-1.411 1.146-2.99 2.461-3.812 4.121-.488.982-.859 2.458-.056 3.38.247.281.593.491.979.517.263.019.567-.187.803-.172.075.004.12.004.146-.004.019.038.075.101.21.21.773.633 1.216.944 2.229.315 1.557-.974 2.521-2.878 3.755-4.197.882-.94 2.608-1.701 2.821-3.106.21-1.375-.911-2.009-2.067-2.35ZM194.03 235.145c-.026-.352-.263-.689-.72-.693-1.625-.007-3.073.993-4.289 1.979-1.41 1.146-2.99 2.461-3.811 4.121-.488.982-.863 2.459-.057 3.38.248.281.593.491.98.517.262.019.566-.187.802-.172.075.004.12.004.147-.004.018.038.075.101.21.21.769.633 1.215.944 2.228.315 1.557-.974 2.521-2.874 3.756-4.197.881-.94 2.607-1.701 2.821-3.106.21-1.372-.915-2.009-2.067-2.35Z"/><path fill="#343630" d="M220.31 252.851a431.89 431.89 0 0 0-1.051-11.424 761.626 761.626 0 0 0-.622-5.887c-.124-1.113-.15-2.256-1.01-3.08-.87-.832-2.371-1.173-3.466-1.533a37.096 37.096 0 0 0-5.354-1.319c-3.481-.588-7-.678-10.512-.318-.953.097-.961 1.596 0 1.499.225-.023.45-.042.671-.06a.703.703 0 0 0-.281.565c-.259 10.372-.863 20.8-.664 31.172.09 4.658.533 9.394 2.011 13.838.424 1.274.975 2.957 2.469 3.305.427.101.829.075 1.185-.048.42 2.375 1.471 4.728 3.718 5.853 2.011 1.008 4.393.708 5.947-.817 1.624.832 3.624.397 5.004-.821 2.139-1.885 2.281-5.032 2.424-7.67.416-7.745.124-15.521-.469-23.255Z"/><path fill="#615C58" d="M203.123 252.399c-.026-.48-.776-.484-.75 0l1.268 22.981c.026.479.777.483.75 0l-1.268-22.981ZM209.025 242.405c-.019-.48-.769-.484-.75 0 .334 9.135.889 18.255 1.665 27.361.042.476.792.479.751 0a554.6 554.6 0 0 1-1.666-27.361ZM210.923 275.776c-.067-.476-.788-.274-.724.198l.717 5.126c.067.476.788.274.724-.198l-.717-5.126ZM215.83 249.506c-.048-.476-.802-.48-.75 0 .889 8.389 1.872 16.771 2.957 25.139.06.472.81.476.75 0a1108.847 1108.847 0 0 1-2.957-25.139Z"/><path fill="#F29C2C" d="M170.289 183.106s-1.22.375-6.097 1.218c-.334.056-.717.113-1.144.161-5.774.708-19.37.881-26.619 1.057-6.025.142-10.137.067-11.69.022-.15-.003-.274-.007-.375-.011l-.315-.011s1.275-7.371 7.473-12.868c.927-.82 1.966-1.6 3.125-2.308 7.32-4.462 23.715-5.999 29.331-6.403 1.219-.09 1.932-.124 1.932-.124l.807 3.556 1.729 7.599.556 2.443 1.287 5.669Z"/><path fill="#EB7A17" d="M168.446 174.993c-8.79 4.358-19.512 2.863-29.016 4.598-4.625.843-9.277 2.207-13.288 4.725-.612.382-1.204.795-1.778 1.237 1.159.037 5.466.146 12.065-.012 7.785-.187 22.885-.374 27.763-1.217 4.877-.843 6.096-1.218 6.096-1.218l-1.842-8.113Z"/><path fill="#613D18" d="M130.126 182.252c-1.391 1.049-3.042 1.723-4.498 2.683-.304.198-.6.408-.889.629-.15-.004-.274-.007-.375-.011l-.315-.011s1.275-7.371 7.473-12.868c.334.382.604.843.807 1.312 1.279 2.926.326 6.355-2.203 8.266ZM170.289 183.106s-1.22.375-6.097 1.218c-.334.056-.717.113-1.144.161-.214-1.206.322-2.664.863-3.762.844-1.716 1.286-3.395.922-5.302-.277-1.461-.817-2.859-1.14-4.305-.544-2.421-.484-4.834.285-7.153 1.219-.09 1.932-.124 1.932-.124l.807 3.556a9.38 9.38 0 0 0 .165 2.514c.368 1.84 1.077 3.59 1.347 5.456.097.671.12 1.323.09 1.967.229-.004.461.03.683.105l1.287 5.669Z"/><path fill="#343630" d="M222.628 234.232a7.552 7.552 0 0 1-.172-.742c-.563-3.14-1.996-6.359-3.107-9.338-1.189-3.193-2.521-6.333-4.119-9.342-3.208-6.036-7.713-11.11-12.125-16.277-4.112-4.807-7.973-9.93-10.419-15.809-1.388-3.331-1.621-6.981-2.337-10.484-.593-2.908-1.752-7.326-4.765-8.877-8.291-4.268-19.674.476-19.674.476s.034.914.128 2.364c.247 3.68.919 10.796 2.551 15.127 1.594 4.227 2.149 8.345 1.879 12.849-.24 3.953-.761 7.891-.66 11.863l.011.379c.721 20.121 8.899 27.653 23.355 32.862 6.194 2.229 16.489 3.08 23.073 2.39 2.041-.213 5.346-.697 6.655-2.525 1.01-1.409.173-3.305-.274-4.916Z"/><path fill="#fff" d="M180.399 185.077c-1.279-3.357-2.225-6.793-2.945-10.312-.525-2.552-1.347-4.916-3.181-6.643a8.449 8.449 0 0 0-1.422-1.08c-1.985-1.202-4.66-1.72-6.814-.839.102 1.514.274 3.605.559 5.845.402 3.215 1.032 6.73 1.993 9.282 1.594 4.227 2.149 8.345 1.879 12.849-.24 3.953-.761 7.891-.66 11.863.48.18 1.002.311 1.557.39 6.558.922 10.992-5.733 11.371-11.575.225-3.436-1.14-6.636-2.337-9.78Z"/><path fill="#FFC445" d="M174.273 168.122c-.841 2.21-2.056 3.908-4.611 4.181-.781.083-2.371-.03-3.066-.255-.285-2.24-.457-4.331-.559-5.845 2.154-.881 4.829-.363 6.814.839a8.449 8.449 0 0 1 1.422 1.08Z"/><path fill="#252622" d="M171.245 167.766a1.84 1.84 0 0 0-.443-.607c-1.331-1.109-1.744 1.424-1.752 2.23-.003.449.06.922.319 1.289.255.371.747.607 1.171.457.318-.112.532-.409.679-.716a3.176 3.176 0 0 0 .026-2.653Z"/><path fill="#615C58" d="M209.063 233.044c-6.9-3.324-13.69-6.857-18.053-13.4-4.476-6.715-7.507-14.85-6.329-22.999.067-.473-.657-.675-.725-.199-1.178 8.161 1.67 16.225 6.052 23.037 4.483 6.966 11.401 10.705 18.676 14.213.431.202.814-.442.379-.652ZM214.772 232.156c-4.712-2.315-8.7-5.71-11.713-10.008-.274-.394-.926-.019-.649.378 3.088 4.403 7.151 7.903 11.983 10.279.432.209.815-.435.379-.649ZM215.163 228.904a8.843 8.843 0 0 1-3.467-2.256c-.334-.349-.863.18-.529.528a9.677 9.677 0 0 0 3.797 2.451c.458.161.653-.562.199-.723ZM216.919 238.881a16.294 16.294 0 0 1-7.233-4.227c-.342-.341-.875.188-.529.529a17.092 17.092 0 0 0 7.567 4.421c.461.131.66-.592.195-.723ZM208.316 239.227c-2.986 1.034-6.059 1.24-9.162.66-.473-.09-.544.659-.071.745 3.241.607 6.434.352 9.548-.727.458-.153.139-.835-.315-.678Z"/></svg>

<svg width="335" height="362" viewBox="0 0 335 362" fill="none" xmlns="http://www.w3.org/2000/svg">
<circle cx="166.916" cy="160.916" r="85.9155" fill="#ED93ED"/>
<path d="M184.147 233.148C184.121 232.796 183.885 232.459 183.427 232.455C181.802 232.448 180.354 233.448 179.139 234.434C177.728 235.58 176.149 236.895 175.327 238.555C174.839 239.537 174.468 241.013 175.271 241.935C175.518 242.216 175.864 242.426 176.25 242.452C176.513 242.471 176.817 242.265 177.053 242.28C177.128 242.284 177.173 242.284 177.199 242.276C177.218 242.314 177.274 242.377 177.409 242.486C178.182 243.119 178.625 243.43 179.638 242.801C181.195 241.827 182.159 239.923 183.393 238.604C184.275 237.664 186.001 236.903 186.214 235.498C186.424 234.123 185.303 233.489 184.147 233.148Z" fill="#71A6AB"/>
<path d="M194.03 235.145C194.004 234.793 193.767 234.456 193.31 234.452C191.685 234.445 190.237 235.445 189.021 236.431C187.611 237.577 186.031 238.892 185.21 240.552C184.722 241.534 184.347 243.011 185.153 243.932C185.401 244.213 185.746 244.423 186.133 244.449C186.395 244.468 186.699 244.262 186.935 244.277C187.01 244.281 187.055 244.281 187.082 244.273C187.1 244.311 187.157 244.374 187.292 244.483C188.061 245.116 188.507 245.427 189.52 244.798C191.077 243.824 192.041 241.924 193.276 240.601C194.157 239.661 195.883 238.9 196.097 237.495C196.307 236.123 195.182 235.486 194.03 235.145Z" fill="#71A6AB"/>
<path d="M220.31 252.851C220.017 249.037 219.653 245.23 219.259 241.427C219.057 239.463 218.854 237.5 218.637 235.54C218.513 234.427 218.487 233.284 217.627 232.46C216.757 231.628 215.256 231.287 214.161 230.927C212.413 230.354 210.619 229.915 208.807 229.608C205.326 229.02 201.807 228.93 198.295 229.29C197.342 229.387 197.334 230.886 198.295 230.789C198.52 230.766 198.745 230.747 198.966 230.729C198.805 230.849 198.693 231.036 198.685 231.294C198.426 241.666 197.822 252.094 198.021 262.466C198.111 267.124 198.554 271.86 200.032 276.304C200.456 277.578 201.007 279.261 202.501 279.609C202.928 279.71 203.33 279.684 203.686 279.561C204.106 281.936 205.157 284.289 207.404 285.414C209.415 286.422 211.797 286.122 213.351 284.597C214.975 285.429 216.975 284.994 218.355 283.776C220.494 281.891 220.636 278.744 220.779 276.106C221.195 268.361 220.903 260.585 220.31 252.851Z" fill="#343630"/>
<path d="M203.123 252.399C203.097 251.919 202.347 251.915 202.373 252.399L203.641 275.38C203.667 275.859 204.418 275.863 204.391 275.38L203.123 252.399Z" fill="#615C58"/>
<path d="M209.025 242.405C209.006 241.925 208.256 241.921 208.275 242.405C208.609 251.54 209.164 260.66 209.94 269.766C209.982 270.242 210.732 270.245 210.691 269.766C209.91 260.66 209.355 251.536 209.025 242.405Z" fill="#615C58"/>
<path d="M210.923 275.776C210.856 275.3 210.135 275.502 210.199 275.974L210.916 281.1C210.983 281.576 211.704 281.374 211.64 280.902L210.923 275.776Z" fill="#615C58"/>
<path d="M215.83 249.506C215.782 249.03 215.028 249.026 215.08 249.506C215.969 257.895 216.952 266.277 218.037 274.645C218.097 275.117 218.847 275.121 218.787 274.645C217.706 266.277 216.72 257.899 215.83 249.506Z" fill="#615C58"/>
<path d="M170.289 183.106C170.289 183.106 169.069 183.481 164.192 184.324C163.858 184.38 163.475 184.437 163.048 184.485C157.274 185.193 143.678 185.366 136.429 185.542C130.404 185.684 126.292 185.609 124.739 185.564C124.589 185.561 124.465 185.557 124.364 185.553C124.154 185.546 124.049 185.542 124.049 185.542C124.049 185.542 125.324 178.171 131.522 172.674C132.449 171.854 133.488 171.074 134.647 170.366C141.967 165.904 158.362 164.367 163.978 163.963C165.197 163.873 165.91 163.839 165.91 163.839L166.717 167.395L168.446 174.994L169.002 177.437L170.289 183.106Z" fill="#F29C2C"/>
<path d="M168.446 174.993C159.656 179.351 148.934 177.856 139.43 179.591C134.805 180.434 130.153 181.798 126.142 184.316C125.53 184.698 124.938 185.111 124.364 185.553C125.523 185.59 129.83 185.699 136.429 185.541C144.214 185.354 159.314 185.167 164.192 184.324C169.069 183.481 170.288 183.106 170.288 183.106L168.446 174.993Z" fill="#EB7A17"/>
<path d="M130.126 182.252C128.735 183.301 127.084 183.975 125.628 184.935C125.324 185.133 125.028 185.343 124.739 185.564C124.589 185.56 124.465 185.557 124.364 185.553C124.154 185.545 124.049 185.542 124.049 185.542C124.049 185.542 125.324 178.171 131.522 172.674C131.856 173.056 132.126 173.517 132.329 173.986C133.608 176.912 132.655 180.341 130.126 182.252Z" fill="#613D18"/>
<path d="M170.289 183.106C170.289 183.106 169.069 183.481 164.192 184.324C163.858 184.38 163.475 184.437 163.048 184.485C162.834 183.279 163.37 181.821 163.911 180.723C164.755 179.007 165.197 177.328 164.833 175.421C164.556 173.96 164.016 172.562 163.693 171.116C163.149 168.695 163.209 166.282 163.978 163.963C165.197 163.873 165.91 163.839 165.91 163.839L166.717 167.395C166.661 168.219 166.709 169.055 166.882 169.909C167.25 171.749 167.959 173.499 168.229 175.365C168.326 176.036 168.349 176.688 168.319 177.332C168.548 177.328 168.78 177.362 169.002 177.437L170.289 183.106Z" fill="#613D18"/>
<path d="M222.628 234.232C222.557 233.977 222.497 233.729 222.456 233.49C221.893 230.35 220.46 227.131 219.349 224.152C218.16 220.959 216.828 217.819 215.23 214.81C212.022 208.774 207.517 203.7 203.105 198.533C198.993 193.726 195.132 188.603 192.686 182.724C191.298 179.393 191.065 175.743 190.349 172.24C189.756 169.332 188.597 164.914 185.584 163.363C177.293 159.095 165.91 163.839 165.91 163.839C165.91 163.839 165.944 164.753 166.038 166.203C166.285 169.883 166.957 176.999 168.589 181.33C170.183 185.557 170.738 189.675 170.468 194.179C170.228 198.132 169.707 202.07 169.808 206.042C169.812 206.17 169.816 206.293 169.819 206.421C170.54 226.542 178.718 234.074 193.174 239.283C199.368 241.512 209.663 242.363 216.247 241.673C218.288 241.46 221.593 240.976 222.902 239.148C223.912 237.739 223.075 235.843 222.628 234.232Z" fill="#343630"/>
<path d="M180.399 185.077C179.12 181.72 178.174 178.284 177.454 174.765C176.929 172.213 176.107 169.849 174.273 168.122C173.856 167.728 173.383 167.365 172.851 167.042C170.866 165.84 168.191 165.322 166.037 166.203C166.139 167.717 166.311 169.808 166.596 172.048C166.998 175.263 167.628 178.778 168.589 181.33C170.183 185.557 170.738 189.675 170.468 194.179C170.228 198.132 169.707 202.07 169.808 206.042C170.288 206.222 170.81 206.353 171.365 206.432C177.923 207.354 182.357 200.699 182.736 194.857C182.961 191.421 181.596 188.221 180.399 185.077Z" fill="white"/>
<path d="M174.273 168.122C173.432 170.332 172.217 172.03 169.662 172.303C168.881 172.386 167.291 172.273 166.596 172.048C166.311 169.808 166.139 167.717 166.037 166.203C168.191 165.322 170.866 165.84 172.851 167.042C173.383 167.365 173.856 167.728 174.273 168.122Z" fill="#FFC445"/>
<path d="M171.245 167.766C171.136 167.538 170.993 167.324 170.802 167.159C169.471 166.05 169.058 168.583 169.05 169.389C169.047 169.838 169.11 170.311 169.369 170.678C169.624 171.049 170.116 171.285 170.54 171.135C170.858 171.023 171.072 170.726 171.219 170.419C171.586 169.651 171.624 168.729 171.316 167.935C171.294 167.879 171.271 167.822 171.245 167.766Z" fill="#252622"/>
<path d="M209.063 233.044C202.163 229.72 195.373 226.187 191.01 219.644C186.534 212.929 183.503 204.794 184.681 196.645C184.748 196.172 184.024 195.97 183.956 196.446C182.778 204.607 185.626 212.671 190.008 219.483C194.491 226.449 201.409 230.188 208.684 233.696C209.115 233.898 209.498 233.254 209.063 233.044Z" fill="#615C58"/>
<path d="M214.772 232.156C210.06 229.841 206.072 226.446 203.059 222.148C202.785 221.754 202.133 222.129 202.41 222.526C205.498 226.929 209.561 230.429 214.393 232.805C214.825 233.014 215.208 232.37 214.772 232.156Z" fill="#615C58"/>
<path d="M215.163 228.904C213.831 228.431 212.668 227.667 211.696 226.648C211.362 226.299 210.833 226.828 211.167 227.176C212.233 228.293 213.512 229.11 214.964 229.627C215.422 229.788 215.617 229.065 215.163 228.904Z" fill="#615C58"/>
<path d="M216.919 238.881C214.146 238.105 211.719 236.689 209.686 234.654C209.344 234.313 208.811 234.842 209.157 235.183C211.276 237.304 213.831 238.795 216.724 239.604C217.185 239.735 217.384 239.012 216.919 238.881Z" fill="#615C58"/>
<path d="M208.316 239.227C205.33 240.261 202.257 240.467 199.154 239.887C198.681 239.797 198.61 240.546 199.083 240.632C202.324 241.239 205.517 240.984 208.631 239.905C209.089 239.752 208.77 239.07 208.316 239.227Z" fill="#615C58"/>
</svg>
